svgs/sharp-solid/square-fragile.svg

<svg xmlns="http://www.w3.org/2000/svg" viewBox="0 0 448 512"><!--! Font Awesome Pro 6.6.0 by @fontawesome - https://fontawesome.com License - https://fontawesome.com/license (Commercial License) Copyright 2024 Fonticons, Inc. --><path d="M448 32L0 32 0 480l448 0 0-448zM128 96l48 0 32 64-32 32 80 64-32-64 48-32L240 96l80 0 0 112c0 47.6-34.6 87.1-80 94.7l0 81.3 64 0 0 32-160 0 0-32 64 0 0-81.3c-45.4-7.6-80-47.1-80-94.7l0-112z"/></svg>

<svg xmlns="http://www.w3.org/2000/svg" viewBox="0 0 448 512"><!--! Font Awesome Pro 6.4.2 by @fontawesome - https://fontawesome.com License - https://fontawesome.com/license (Commercial License) Copyright 2023 Fonticons, Inc. --><path d="M448 32H0V480H448V32zM128 96h48l32 64-32 32 80 64-32-64 48-32L240 96h80V208c0 47.6-34.6 87.1-80 94.7V384h64v32H144V384h64V302.7c-45.4-7.6-80-47.1-80-94.7V96z"/></svg>
